WorldWind/resources/milstd2525/metoc/was-wsdd--p----.svg

<?xml version="1.0" encoding="UTF-8" standalone="no"?>
<!-- SVG content generated using Symbology Configuration Management System (SCMS) -->

<!-- Systematic Software Engineering Ltd. - www.systematic.co.uk - do not remove  -->

<svg
    xmlns:dc="http://purl.org/dc/elements/1.1/"
    xmlns:cc="http://creativecommons.org/ns#"
    xmlns:rdf="http://www.w3.org/1999/02/22-rdf-syntax-ns#"
    xmlns:svg="http://www.w3.org/2000/svg"
    xmlns="http://www.w3.org/2000/svg"
    xmlns:sodipodi="http://sodipodi.sourceforge.net/DTD/sodipodi-0.dtd"
    xmlns:inkscape="http://www.inkscape.org/namespaces/inkscape"
    id="WAS-WSDD--P----"
    width="160"
    height="340"
    viewBox="0 0 160 340"
    version="1.1"
    inkscape:version="0.48.2 r9819"
    sodipodi:docname="was-wsdd--p----.svg">
    <metadata
        id="metadata12">
        <rdf:RDF>
            <cc:Work
                rdf:about="">
                <dc:format>image/svg+xml</dc:format>
                <dc:type
                    rdf:resource="http://purl.org/dc/dcmitype/StillImage"/>
            </cc:Work>
        </rdf:RDF>
    </metadata>
    <defs
        id="defs10"/>
    <sodipodi:namedview
        pagecolor="#ffffff"
        bordercolor="#666666"
        borderopacity="1"
        objecttolerance="10"
        gridtolerance="10"
        guidetolerance="10"
        inkscape:pageopacity="0"
        inkscape:pageshadow="2"
        inkscape:window-width="640"
        inkscape:window-height="480"
        id="namedview8"
        showgrid="false"
        inkscape:zoom="0.59"
        inkscape:cx="105"
        inkscape:cy="170"
        inkscape:window-x="0"
        inkscape:window-y="0"
        inkscape:window-maximized="0"
        inkscape:current-layer="WAS-WSDD--P----"/>
    <g
        id="g3"
        transform="translate(-95,-30)">
        <svg
            viewBox="0 0 400 400"
            id="_0.WAS-WSDD--P----"
            width="400"
            height="400"
            version="1.1"
            inkscape:version="0.48.2 r9819">
            <path
                d="m 250,65 c 0,-20 -30,-30 -50,-30 -40,0 -100,35 -100,75 0,40 60,75 100,75 20,0 50,-10 50,-30 0,-20 -30,-30 -50,-30 -40,0 -100,35 -100,75 0,40 60,75 100,75 20,0 50,-10 50,-30 0,-20 -30,-30 -50,-30 -40,0 -100,35 -100,75 0,40 60,75 100,75 20,0 50,-10 50,-30"
                style="fill:none;stroke:#ad694a;stroke-width:10"
                id="path6"
                inkscape:connector-curvature="0"/>
        </svg>
    </g>
</svg>

<?xml version="1.0"?>
<!DOCTYPE svg PUBLIC "-//W3C//DTD SVG 1.1//EN" "http://www.w3.org/Graphics/SVG/1.1/DTD/svg11.dtd" >
<!-- SVG content generated using Symbology Configuration Management System (SCMS) -->
<!-- Systematic Software Engineering Ltd. - www.systematic.co.uk - do not remove  -->
<svg id="WAS-WSDD--P----" width="400px" height="400px" viewBox="0 0 400 400">
    <g>
        <svg viewBox="0 0 400 400" id="_0.WAS-WSDD--P----" width="400px" height="400px">
            <path d="M250 65 C250 45 220 35 200 35 C160 35 100 70 100 110 C100 150 160 185 200 185 C220
			185 250 175 250 155 C250 135 220 125 200 125 C160 125 100 160 100 200 C100
			240 160 275 200 275 C220 275 250 265 250 245 C250 225 220 215 200 215 C160 215
			100 250 100 290 C100 330 160 365 200 365 C220 365 250 355 250 335"
                  style="fill:none;stroke:rgb(173,105,74);stroke-width:10"></path>
        </svg>

    </g>
</svg>
